images/about-subtext-1.svg

<svg width="554" height="172" viewBox="0 0 554 172" fill="none" xmlns="http://www.w3.org/2000/svg">
<g opacity="0.3">
<mask id="path-1-outside-1_2668_9033" maskUnits="userSpaceOnUse" x="0" y="1" width="553" height="170" fill="black">
<rect fill="white" y="1" width="553" height="170"/>
<path d="M1.94344 170V1.99999H34.1034L105.623 120.56H88.5834L158.903 1.99999H190.823L191.303 170H154.823L154.583 57.92H161.303L105.143 152.24H87.6234L30.2634 57.92H38.4234V170H1.94344ZM266.922 69.68H347.802V99.92H266.922V69.68ZM269.802 138.8H361.242V170H231.162V1.99999H358.122V33.2H269.802V138.8ZM440.234 170L367.754 1.99999H409.754L473.114 150.8H448.394L512.714 1.99999H551.354L478.634 170H440.234Z"/>
</mask>
<path d="M1.94344 170H0.943439V171H1.94344V170ZM1.94344 1.99999V0.999989H0.943439V1.99999H1.94344ZM34.1034 1.99999L34.9597 1.48346L34.6681 0.999989H34.1034V1.99999ZM105.623 120.56V121.56H107.395L106.48 120.043L105.623 120.56ZM88.5834 120.56L87.7234 120.05L86.8277 121.56H88.5834V120.56ZM158.903 1.99999V0.999989H158.334L158.043 1.48985L158.903 1.99999ZM190.823 1.99999L191.823 1.99713L191.821 0.999989H190.823V1.99999ZM191.303 170V171H192.306L192.303 169.997L191.303 170ZM154.823 170L153.823 170.002L153.826 171H154.823V170ZM154.583 57.92V56.92H153.581L153.583 57.9221L154.583 57.92ZM161.303 57.92L162.163 58.4316L163.063 56.92H161.303V57.92ZM105.143 152.24V153.24H105.712L106.003 152.752L105.143 152.24ZM87.6234 152.24L86.769 152.76L87.0612 153.24H87.6234V152.24ZM30.2634 57.92V56.92H28.4849L29.409 58.4396L30.2634 57.92ZM38.4234 57.92H39.4234V56.92H38.4234V57.92ZM38.4234 170V171H39.4234V170H38.4234ZM2.94344 170V1.99999H0.943439V170H2.94344ZM1.94344 2.99999H34.1034V0.999989H1.94344V2.99999ZM33.2472 2.51652L104.767 121.077L106.48 120.043L34.9597 1.48346L33.2472 2.51652ZM105.623 119.56H88.5834V121.56H105.623V119.56ZM89.4435 121.07L159.764 2.51012L158.043 1.48985L87.7234 120.05L89.4435 121.07ZM158.903 2.99999H190.823V0.999989H158.903V2.99999ZM189.823 2.00285L190.303 170.003L192.303 169.997L191.823 1.99713L189.823 2.00285ZM191.303 169H154.823V171H191.303V169ZM155.823 169.998L155.583 57.9179L153.583 57.9221L153.823 170.002L155.823 169.998ZM154.583 58.92H161.303V56.92H154.583V58.92ZM160.444 57.4084L104.284 151.728L106.003 152.752L162.163 58.4316L160.444 57.4084ZM105.143 151.24H87.6234V153.24H105.143V151.24ZM88.4779 151.72L31.1178 57.4004L29.409 58.4396L86.769 152.76L88.4779 151.72ZM30.2634 58.92H38.4234V56.92H30.2634V58.92ZM37.4234 57.92V170H39.4234V57.92H37.4234ZM38.4234 169H1.94344V171H38.4234V169ZM266.922 69.68V68.68H265.922V69.68H266.922ZM347.802 69.68H348.802V68.68H347.802V69.68ZM347.802 99.92V100.92H348.802V99.92H347.802ZM266.922 99.92H265.922V100.92H266.922V99.92ZM269.802 138.8H268.802V139.8H269.802V138.8ZM361.242 138.8H362.242V137.8H361.242V138.8ZM361.242 170V171H362.242V170H361.242ZM231.162 170H230.162V171H231.162V170ZM231.162 1.99999V0.999989H230.162V1.99999H231.162ZM358.122 1.99999H359.122V0.999989H358.122V1.99999ZM358.122 33.2V34.2H359.122V33.2H358.122ZM269.802 33.2V32.2H268.802V33.2H269.802ZM266.922 70.68H347.802V68.68H266.922V70.68ZM346.802 69.68V99.92H348.802V69.68H346.802ZM347.802 98.92H266.922V100.92H347.802V98.92ZM267.922 99.92V69.68H265.922V99.92H267.922ZM269.802 139.8H361.242V137.8H269.802V139.8ZM360.242 138.8V170H362.242V138.8H360.242ZM361.242 169H231.162V171H361.242V169ZM232.162 170V1.99999H230.162V170H232.162ZM231.162 2.99999H358.122V0.999989H231.162V2.99999ZM357.122 1.99999V33.2H359.122V1.99999H357.122ZM358.122 32.2H269.802V34.2H358.122V32.2ZM268.802 33.2V138.8H270.802V33.2H268.802ZM440.234 170L439.316 170.396L439.576 171H440.234V170ZM367.754 1.99999V0.999989H366.234L366.836 2.39612L367.754 1.99999ZM409.754 1.99999L410.674 1.60822L410.415 0.999989H409.754V1.99999ZM473.114 150.8V151.8H474.627L474.034 150.408L473.114 150.8ZM448.394 150.8L447.476 150.403L446.872 151.8H448.394V150.8ZM512.714 1.99999V0.999989H512.057L511.796 1.60321L512.714 1.99999ZM551.354 1.99999L552.272 2.39723L552.877 0.999989H551.354V1.99999ZM478.634 170V171H479.291L479.552 170.397L478.634 170ZM441.152 169.604L368.672 1.60385L366.836 2.39612L439.316 170.396L441.152 169.604ZM367.754 2.99999H409.754V0.999989H367.754V2.99999ZM408.834 2.39176L472.194 151.192L474.034 150.408L410.674 1.60822L408.834 2.39176ZM473.114 149.8H448.394V151.8H473.114V149.8ZM449.312 151.197L513.632 2.39676L511.796 1.60321L447.476 150.403L449.312 151.197ZM512.714 2.99999H551.354V0.999989H512.714V2.99999ZM550.436 1.60275L477.716 169.603L479.552 170.397L552.272 2.39723L550.436 1.60275ZM478.634 169H440.234V171H478.634V169Z" fill="#1DFEE9" mask="url(#path-1-outside-1_2668_9033)"/>
<path d="M1.94344 170H0.943439V171H1.94344V170ZM1.94344 1.99999V0.999989H0.943439V1.99999H1.94344ZM34.1034 1.99999L34.9597 1.48346L34.6681 0.999989H34.1034V1.99999ZM105.623 120.56V121.56H107.395L106.48 120.043L105.623 120.56ZM88.5834 120.56L87.7234 120.05L86.8277 121.56H88.5834V120.56ZM158.903 1.99999V0.999989H158.334L158.043 1.48985L158.903 1.99999ZM190.823 1.99999L191.823 1.99713L191.821 0.999989H190.823V1.99999ZM191.303 170V171H192.306L192.303 169.997L191.303 170ZM154.823 170L153.823 170.002L153.826 171H154.823V170ZM154.583 57.92V56.92H153.581L153.583 57.9221L154.583 57.92ZM161.303 57.92L162.163 58.4316L163.063 56.92H161.303V57.92ZM105.143 152.24V153.24H105.712L106.003 152.752L105.143 152.24ZM87.6234 152.24L86.769 152.76L87.0612 153.24H87.6234V152.24ZM30.2634 57.92V56.92H28.4849L29.409 58.4396L30.2634 57.92ZM38.4234 57.92H39.4234V56.92H38.4234V57.92ZM38.4234 170V171H39.4234V170H38.4234ZM2.94344 170V1.99999H0.943439V170H2.94344ZM1.94344 2.99999H34.1034V0.999989H1.94344V2.99999ZM33.2472 2.51652L104.767 121.077L106.48 120.043L34.9597 1.48346L33.2472 2.51652ZM105.623 119.56H88.5834V121.56H105.623V119.56ZM89.4435 121.07L159.764 2.51012L158.043 1.48985L87.7234 120.05L89.4435 121.07ZM158.903 2.99999H190.823V0.999989H158.903V2.99999ZM189.823 2.00285L190.303 170.003L192.303 169.997L191.823 1.99713L189.823 2.00285ZM191.303 169H154.823V171H191.303V169ZM155.823 169.998L155.583 57.9179L153.583 57.9221L153.823 170.002L155.823 169.998ZM154.583 58.92H161.303V56.92H154.583V58.92ZM160.444 57.4084L104.284 151.728L106.003 152.752L162.163 58.4316L160.444 57.4084ZM105.143 151.24H87.6234V153.24H105.143V151.24ZM88.4779 151.72L31.1178 57.4004L29.409 58.4396L86.769 152.76L88.4779 151.72ZM30.2634 58.92H38.4234V56.92H30.2634V58.92ZM37.4234 57.92V170H39.4234V57.92H37.4234ZM38.4234 169H1.94344V171H38.4234V169ZM266.922 69.68V68.68H265.922V69.68H266.922ZM347.802 69.68H348.802V68.68H347.802V69.68ZM347.802 99.92V100.92H348.802V99.92H347.802ZM266.922 99.92H265.922V100.92H266.922V99.92ZM269.802 138.8H268.802V139.8H269.802V138.8ZM361.242 138.8H362.242V137.8H361.242V138.8ZM361.242 170V171H362.242V170H361.242ZM231.162 170H230.162V171H231.162V170ZM231.162 1.99999V0.999989H230.162V1.99999H231.162ZM358.122 1.99999H359.122V0.999989H358.122V1.99999ZM358.122 33.2V34.2H359.122V33.2H358.122ZM269.802 33.2V32.2H268.802V33.2H269.802ZM266.922 70.68H347.802V68.68H266.922V70.68ZM346.802 69.68V99.92H348.802V69.68H346.802ZM347.802 98.92H266.922V100.92H347.802V98.92ZM267.922 99.92V69.68H265.922V99.92H267.922ZM269.802 139.8H361.242V137.8H269.802V139.8ZM360.242 138.8V170H362.242V138.8H360.242ZM361.242 169H231.162V171H361.242V169ZM232.162 170V1.99999H230.162V170H232.162ZM231.162 2.99999H358.122V0.999989H231.162V2.99999ZM357.122 1.99999V33.2H359.122V1.99999H357.122ZM358.122 32.2H269.802V34.2H358.122V32.2ZM268.802 33.2V138.8H270.802V33.2H268.802ZM440.234 170L439.316 170.396L439.576 171H440.234V170ZM367.754 1.99999V0.999989H366.234L366.836 2.39612L367.754 1.99999ZM409.754 1.99999L410.674 1.60822L410.415 0.999989H409.754V1.99999ZM473.114 150.8V151.8H474.627L474.034 150.408L473.114 150.8ZM448.394 150.8L447.476 150.403L446.872 151.8H448.394V150.8ZM512.714 1.99999V0.999989H512.057L511.796 1.60321L512.714 1.99999ZM551.354 1.99999L552.272 2.39723L552.877 0.999989H551.354V1.99999ZM478.634 170V171H479.291L479.552 170.397L478.634 170ZM441.152 169.604L368.672 1.60385L366.836 2.39612L439.316 170.396L441.152 169.604ZM367.754 2.99999H409.754V0.999989H367.754V2.99999ZM408.834 2.39176L472.194 151.192L474.034 150.408L410.674 1.60822L408.834 2.39176ZM473.114 149.8H448.394V151.8H473.114V149.8ZM449.312 151.197L513.632 2.39676L511.796 1.60321L447.476 150.403L449.312 151.197ZM512.714 2.99999H551.354V0.999989H512.714V2.99999ZM550.436 1.60275L477.716 169.603L479.552 170.397L552.272 2.39723L550.436 1.60275ZM478.634 169H440.234V171H478.634V169Z" fill="url(#paint0_linear_2668_9033)" mask="url(#path-1-outside-1_2668_9033)"/>
</g>
<defs>
<linearGradient id="paint0_linear_2668_9033" x1="265.077" y1="-60" x2="151.149" y2="285.153" gradientUnits="userSpaceOnUse">
<stop stop-color="#FFC400"/>
<stop offset="1" stop-color="#FF3300"/>
</linearGradient>
</defs>
</svg>

<svg width="554" height="172" fill="none" xmlns="http://www.w3.org/2000/svg"><g opacity=".3"><mask id="path-1-outside-1_2668_9033" maskUnits="userSpaceOnUse" x="0" y="1" width="553" height="170" fill="#000"><path fill="#fff" d="M0 1h553v170H0z"/><path d="M1.943 170V2h32.16l71.52 118.56h-17.04L158.903 2h31.92l.48 168h-36.48l-.24-112.08h6.72l-56.16 94.32h-17.52l-57.36-94.32h8.16V170H1.943zM266.922 69.68h80.88v30.24h-80.88V69.68zm2.88 69.12h91.44V170h-130.08V2h126.96v31.2h-88.32v105.6zM440.234 170L367.754 2h42l63.36 148.8h-24.72L512.714 2h38.64l-72.72 168h-38.4z"/></mask><path d="M1.943 170h-1v1h1v-1zm0-168V1h-1v1h1zm32.16 0l.857-.517L34.668 1h-.565v1zm71.52 118.56v1h1.772l-.915-1.517-.857.517zm-17.04 0l-.86-.51-.895 1.51h1.755v-1zM158.903 2V1h-.569l-.291.49.86.51zm31.92 0l1-.003-.002-.997h-.998v1zm.48 168v1h1.003l-.003-1.003-1 .003zm-36.48 0l-1 .002.003.998h.997v-1zm-.24-112.08v-1h-1.002l.002 1.002 1-.002zm6.72 0l.86.512.9-1.512h-1.76v1zm-56.16 94.32v1h.569l.291-.488-.86-.512zm-17.52 0l-.854.52.292.48h.562v-1zm-57.36-94.32v-1h-1.778l.924 1.52.854-.52zm8.16 0h1v-1h-1v1zm0 112.08v1h1v-1h-1zm-35.48 0V2h-2v168h2zm-1-167h32.16V1H1.943v2zm31.304-.483l71.52 118.56 1.713-1.034L34.96 1.483l-1.713 1.034zm72.376 117.043h-17.04v2h17.04v-2zm-16.18 1.51L159.764 2.51l-1.721-1.02-70.32 118.56 1.72 1.02zM158.904 3h31.92V1h-31.92v2zm30.92-.997l.48 168 2-.006-.48-168-2 .006zM191.303 169h-36.48v2h36.48v-2zm-35.48.998l-.24-112.08-2 .004.24 112.08 2-.004zm-1.24-111.078h6.72v-2h-6.72v2zm5.861-1.512l-56.16 94.32 1.719 1.024 56.16-94.32-1.719-1.024zm-55.301 93.832h-17.52v2h17.52v-2zm-16.665.48L31.118 57.4l-1.709 1.04 57.36 94.32 1.709-1.04zm-58.215-92.8h8.16v-2h-8.16v2zm7.16-1V170h2V57.92h-2zm1 111.08H1.943v2h36.48v-2zm228.499-99.32v-1h-1v1h1zm80.88 0h1v-1h-1v1zm0 30.24v1h1v-1h-1zm-80.88 0h-1v1h1v-1zm2.88 38.88h-1v1h1v-1zm91.44 0h1v-1h-1v1zm0 31.2v1h1v-1h-1zm-130.08 0h-1v1h1v-1zm0-168V1h-1v1h1zm126.96 0h1V1h-1v1zm0 31.2v1h1v-1h-1zm-88.32 0v-1h-1v1h1zm-2.88 37.48h80.88v-2h-80.88v2zm79.88-1v30.24h2V69.68h-2zm1 29.24h-80.88v2h80.88v-2zm-79.88 1V69.68h-2v30.24h2zm1.88 39.88h91.44v-2h-91.44v2zm90.44-1V170h2v-31.2h-2zm1 30.2h-130.08v2h130.08v-2zm-129.08 1V2h-2v168h2zm-1-167h126.96V1h-126.96v2zm125.96-1v31.2h2V2h-2zm1 30.2h-88.32v2h88.32v-2zm-89.32 1v105.6h2V33.2h-2zM440.234 170l-.918.396.26.604h.658v-1zM367.754 2V1h-1.52l.602 1.396.918-.396zm42 0l.92-.392-.259-.608h-.661v1zm63.36 148.8v1h1.513l-.593-1.392-.92.392zm-24.72 0l-.918-.397-.604 1.397h1.522v-1zM512.714 2V1h-.657l-.261.603.918.397zm38.64 0l.918.397.605-1.397h-1.523v1zm-72.72 168v1h.657l.261-.603-.918-.397zm-37.482-.396l-72.48-168-1.836.792 72.48 168 1.836-.792zM367.754 3h42V1h-42v2zm41.08-.608l63.36 148.8 1.84-.784-63.36-148.8-1.84.784zm64.28 147.408h-24.72v2h24.72v-2zm-23.802 1.397l64.32-148.8-1.836-.794-64.32 148.8 1.836.794zM512.714 3h38.64V1h-38.64v2zm37.722-1.397l-72.72 168 1.836.794 72.72-168-1.836-.794zM478.634 169h-38.4v2h38.4v-2z" fill="#1DFEE9" mask="url(#path-1-outside-1_2668_9033)"/><path d="M1.943 170h-1v1h1v-1zm0-168V1h-1v1h1zm32.16 0l.857-.517L34.668 1h-.565v1zm71.52 118.56v1h1.772l-.915-1.517-.857.517zm-17.04 0l-.86-.51-.895 1.51h1.755v-1zM158.903 2V1h-.569l-.291.49.86.51zm31.92 0l1-.003-.002-.997h-.998v1zm.48 168v1h1.003l-.003-1.003-1 .003zm-36.48 0l-1 .002.003.998h.997v-1zm-.24-112.08v-1h-1.002l.002 1.002 1-.002zm6.72 0l.86.512.9-1.512h-1.76v1zm-56.16 94.32v1h.569l.291-.488-.86-.512zm-17.52 0l-.854.52.292.48h.562v-1zm-57.36-94.32v-1h-1.778l.924 1.52.854-.52zm8.16 0h1v-1h-1v1zm0 112.08v1h1v-1h-1zm-35.48 0V2h-2v168h2zm-1-167h32.16V1H1.943v2zm31.304-.483l71.52 118.56 1.713-1.034L34.96 1.483l-1.713 1.034zm72.376 117.043h-17.04v2h17.04v-2zm-16.18 1.51L159.764 2.51l-1.721-1.02-70.32 118.56 1.72 1.02zM158.904 3h31.92V1h-31.92v2zm30.92-.997l.48 168 2-.006-.48-168-2 .006zM191.303 169h-36.48v2h36.48v-2zm-35.48.998l-.24-112.08-2 .004.24 112.08 2-.004zm-1.24-111.078h6.72v-2h-6.72v2zm5.861-1.512l-56.16 94.32 1.719 1.024 56.16-94.32-1.719-1.024zm-55.301 93.832h-17.52v2h17.52v-2zm-16.665.48L31.118 57.4l-1.709 1.04 57.36 94.32 1.709-1.04zm-58.215-92.8h8.16v-2h-8.16v2zm7.16-1V170h2V57.92h-2zm1 111.08H1.943v2h36.48v-2zm228.499-99.32v-1h-1v1h1zm80.88 0h1v-1h-1v1zm0 30.24v1h1v-1h-1zm-80.88 0h-1v1h1v-1zm2.88 38.88h-1v1h1v-1zm91.44 0h1v-1h-1v1zm0 31.2v1h1v-1h-1zm-130.08 0h-1v1h1v-1zm0-168V1h-1v1h1zm126.96 0h1V1h-1v1zm0 31.2v1h1v-1h-1zm-88.32 0v-1h-1v1h1zm-2.88 37.48h80.88v-2h-80.88v2zm79.88-1v30.24h2V69.68h-2zm1 29.24h-80.88v2h80.88v-2zm-79.88 1V69.68h-2v30.24h2zm1.88 39.88h91.44v-2h-91.44v2zm90.44-1V170h2v-31.2h-2zm1 30.2h-130.08v2h130.08v-2zm-129.08 1V2h-2v168h2zm-1-167h126.96V1h-126.96v2zm125.96-1v31.2h2V2h-2zm1 30.2h-88.32v2h88.32v-2zm-89.32 1v105.6h2V33.2h-2zM440.234 170l-.918.396.26.604h.658v-1zM367.754 2V1h-1.52l.602 1.396.918-.396zm42 0l.92-.392-.259-.608h-.661v1zm63.36 148.8v1h1.513l-.593-1.392-.92.392zm-24.72 0l-.918-.397-.604 1.397h1.522v-1zM512.714 2V1h-.657l-.261.603.918.397zm38.64 0l.918.397.605-1.397h-1.523v1zm-72.72 168v1h.657l.261-.603-.918-.397zm-37.482-.396l-72.48-168-1.836.792 72.48 168 1.836-.792zM367.754 3h42V1h-42v2zm41.08-.608l63.36 148.8 1.84-.784-63.36-148.8-1.84.784zm64.28 147.408h-24.72v2h24.72v-2zm-23.802 1.397l64.32-148.8-1.836-.794-64.32 148.8 1.836.794zM512.714 3h38.64V1h-38.64v2zm37.722-1.397l-72.72 168 1.836.794 72.72-168-1.836-.794zM478.634 169h-38.4v2h38.4v-2z" fill="url(#paint0_linear_2668_9033)" mask="url(#path-1-outside-1_2668_9033)"/></g><defs><linearGradient id="paint0_linear_2668_9033" x1="265.077" y1="-60" x2="151.149" y2="285.153" gradientUnits="userSpaceOnUse"><stop stop-color="#FFC400"/><stop offset="1" stop-color="#F30"/></linearGradient></defs></svg>
